common/svg/github-icon.svg

<svg fill="none" height="20" viewBox="0 0 20 20" width="20" xmlns="http://www.w3.org/2000/svg"><path d="m10 0c-5.525 0-10 4.475-10 10 0 4.425 2.8625 8.1625 6.8375 9.4875.5.0875.6875-.2125.6875-.475 0-.2375-.0125-1.025-.0125-1.8625-2.5125.4625-3.1625-.6125-3.3625-1.175-.1125-.2875-.6-1.175-1.025-1.4125-.35-.1875-.85-.65-.0125-.6625.7875-.0125 1.35.725 1.5375 1.025.9 1.5125 2.3375 1.0875 2.9125.825.0875-.65.35-1.0875.6375-1.3375-2.225-.25-4.55-1.1125-4.55-4.9375 0-1.0875.3875-1.9875 1.025-2.6875-.1-.25-.45-1.275.1-2.65 0 0 .8375-.2625 2.75 1.025.8-.225 1.65-.3375 2.5-.3375s1.7.1125 2.5.3375c1.9125-1.3 2.75-1.025 2.75-1.025.55 1.375.2 2.4.1 2.65.6375.7 1.025 1.5875 1.025 2.6875 0 3.8375-2.3375 4.6875-4.5625 4.9375.3625.3125.675.9125.675 1.85 0 1.3375-.0125 2.4125-.0125 2.75 0 .2625.1875.575.6875.475 1.9852-.6702 3.7102-1.946 4.9323-3.648 1.2221-1.7019 1.8797-3.7442 1.8802-5.8395 0-5.525-4.475-10-10-10z" fill="#000"/></svg>

<svg width="20" height="20" viewBox="0 0 20 20" fill="none" xmlns="http://www.w3.org/2000/svg">
<path d="M10 0C4.475 0 0 4.475 0 10C0 14.425 2.8625 18.1625 6.8375 19.4875C7.3375 19.575 7.525 19.275 7.525 19.0125C7.525 18.775 7.5125 17.9875 7.5125 17.15C5 17.6125 4.35 16.5375 4.15 15.975C4.0375 15.6875 3.55 14.8 3.125 14.5625C2.775 14.375 2.275 13.9125 3.1125 13.9C3.9 13.8875 4.4625 14.625 4.65 14.925C5.55 16.4375 6.9875 16.0125 7.5625 15.75C7.65 15.1 7.9125 14.6625 8.2 14.4125C5.975 14.1625 3.65 13.3 3.65 9.475C3.65 8.3875 4.0375 7.4875 4.675 6.7875C4.575 6.5375 4.225 5.5125 4.775 4.1375C4.775 4.1375 5.6125 3.875 7.525 5.1625C8.325 4.9375 9.175 4.825 10.025 4.825C10.875 4.825 11.725 4.9375 12.525 5.1625C14.4375 3.8625 15.275 4.1375 15.275 4.1375C15.825 5.5125 15.475 6.5375 15.375 6.7875C16.0125 7.4875 16.4 8.375 16.4 9.475C16.4 13.3125 14.0625 14.1625 11.8375 14.4125C12.2 14.725 12.5125 15.325 12.5125 16.2625C12.5125 17.6 12.5 18.675 12.5 19.0125C12.5 19.275 12.6875 19.5875 13.1875 19.4875C15.1727 18.8173 16.8977 17.5415 18.1198 15.8395C19.3419 14.1376 19.9995 12.0953 20 10C20 4.475 15.525 0 10 0Z" fill="black"/>
</svg>
